src/svg/28/devices_outline_28.svg

<svg height="28" viewBox="0 0 28 28" width="28" xmlns="http://www.w3.org/2000/svg"><g fill="none" fill-rule="evenodd"><path d="m0 0h28v28h-28z"/><path d="m8.8458278 9 2.573552.00181725c1.1974031.01712394 1.8452236.15753789 2.5174876.51706861.6631574.35466044 1.1895863.88108934 1.5442467 1.54424674.3852115.7202828.5188859 1.4125056.5188859 2.7826952v7.3083444c0 1.3701896-.1336744 2.0624124-.5188859 2.7826952-.3546604.6631574-.8810893 1.1895863-1.5442467 1.5442467-.7202828.3852115-1.4125056.5188859-2.7826952.5188859h-2.3083444c-1.37018965 0-2.06241236-.1336744-2.78269521-.5188859-.66315737-.3546604-1.18958629-.8810893-1.54424673-1.5442467-.38521149-.7202828-.51888586-1.4125056-.51888586-2.7826952l.00181725-7.573552c.01712394-1.1974031.15753789-1.8452236.51706861-2.5174876.35466044-.6631574.88108936-1.1895863 1.54424673-1.54424674.72028285-.38521149 1.41250556-.51888586 2.78269521-.51888586zm9.0264018-7c1.776598 0 2.6475757.16819357 3.5530607.65245221.8261203.44181398 1.4804435 1.0961372 1.9222575 1.92225752.4557728.85222112.6315711 1.67387534.6506761 3.24875293l.0017761.30430774v11.7444592c0 1.776598-.1681936 2.6475757-.6524522 3.5530607-.441814.8261203-1.0961372 1.4804435-1.9222575 1.9222575-.88413.4728379-1.7317817.6430423-3.4159609.6521042-.5522768.002952-1.0023906-.4423518-1.0053573-.9946286s.4423371-1.0023906.9946139-1.0053573c1.3844471-.007437 1.9217825-.1153314 2.4835065-.4157447.4775834-.2554144.8464145-.6242455 1.1018289-1.1018289.2718694-.5083515.3879059-1.0034139.4114457-2.1258912l.0046329-.4839717v-11.7444592l-.0046329-.48397172c-.0235398-1.12247723-.1395763-1.6175397-.4114457-2.12589123-.2554144-.47758338-.6242455-.84641446-1.1018289-1.10182884-.5083515-.27186938-1.0034139-.3879059-2.1255406-.4114458l-.483812-.00463281-3.0055364.0014712c-1.289525.01507234-1.8035325.12272986-2.349296.41460741-.4775834.25541438-.8464145.62424546-1.1018289 1.10182884-.0998115.18663136-.1690646.34671838-.2228703.52565636l-.0492161.18690294c-.1237413.53824394-.6603864.87426472-1.19863032.75052341-.53824393-.1237413-.87426471-.66038637-.75052341-1.1986303.10218345-.4444726.24492409-.80995505.45761374-1.20765013.44181399-.82612032 1.09613719-1.48044354 1.92225749-1.92225752.8066083-.43137883 1.5794601-.6096529 2.9895769-.64559014l.2907191-.00532244zm-6.7180574 9-2.526982.0011468c-.90400648.0100367-1.25785379.0872277-1.6208599.2813655-.31462041.1682608-.55555721.4091976-.72381805.723818-.20907146.3909297-.28251225.7712373-.28251225 1.8394975v7.3083444c0 1.0682602.07344079 1.4485678.28251225 1.8394975.16826084.3146204.40919764.5555572.72381805.723818.33508256.1792042.66236118.2587612 1.42175457.2778346l.41774293.0046777h2.3083444c1.0682602 0 1.4485678-.0734408 1.8394975-.2825123.3146204-.1682608.5555572-.4091976.723818-.723818.1792042-.3350826.2587612-.6623612.2778346-1.4217546l.0046777-.4177429v-7.3083444c0-1.0682602-.0734408-1.4485678-.2825123-1.8394975-.1682608-.3146204-.4091976-.5555572-.723818-.723818-.3909297-.2090715-.7712373-.2825123-1.8394975-.2825123z" fill="currentColor" fill-rule="nonzero"/></g></svg>

<?xml version="1.0" encoding="UTF-8"?>
<svg width="28px" height="28px" viewBox="0 0 28 28" version="1.1" xmlns="http://www.w3.org/2000/svg" xmlns:xlink="http://www.w3.org/1999/xlink">
    <!-- Generator: Sketch 63.1 (92452) - https://sketch.com -->
    <title>devices_outline_28</title>
    <desc>Created with Sketch.</desc>
    <g id="Page-1" stroke="none" stroke-width="1" fill="none" fill-rule="evenodd">
        <g id="devices_outline_28">
            <rect x="0" y="0" width="28" height="28"></rect>
            <path d="M8.8458278,9 L11.4193798,9.00181725 C12.6167829,9.01894119 13.2646034,9.15935514 13.9368674,9.51888586 C14.6000248,9.8735463 15.1264537,10.3999752 15.4811141,11.0631326 C15.8663256,11.7834154 16,12.4756382 16,13.8458278 L16,13.8458278 L16,21.1541722 C16,22.5243618 15.8663256,23.2165846 15.4811141,23.9368674 C15.1264537,24.6000248 14.6000248,25.1264537 13.9368674,25.4811141 C13.2165846,25.8663256 12.5243618,26 11.1541722,26 L11.1541722,26 L8.8458278,26 C7.47563815,26 6.78341544,25.8663256 6.06313259,25.4811141 C5.39997522,25.1264537 4.8735463,24.6000248 4.51888586,23.9368674 C4.13367437,23.2165846 4,22.5243618 4,21.1541722 L4,21.1541722 L4.00181725,13.5806202 C4.01894119,12.3832171 4.15935514,11.7353966 4.51888586,11.0631326 C4.8735463,10.3999752 5.39997522,9.8735463 6.06313259,9.51888586 C6.78341544,9.13367437 7.47563815,9 8.8458278,9 L8.8458278,9 Z M17.8722296,2 C19.6488276,2 20.5198053,2.16819357 21.4252903,2.65245221 C22.2514106,3.09426619 22.9057338,3.74858941 23.3475478,4.57470973 C23.8033206,5.42693085 23.9791189,6.24858507 23.9982239,7.82346266 L24,8.1277704 L24,19.8722296 C24,21.6488276 23.8318064,22.5198053 23.3475478,23.4252903 C22.9057338,24.2514106 22.2514106,24.9057338 21.4252903,25.3475478 C20.5411603,25.8203857 19.6935086,25.9905901 18.0093294,25.999652 C17.4570526,26.002604 17.0069388,25.5573002 17.0039721,25.0050234 C17.0010054,24.4527466 17.4463092,24.0026328 17.998586,23.9996661 C19.3830331,23.9922291 19.9203685,23.8843347 20.4820925,23.5839214 C20.9596759,23.328507 21.328507,22.9596759 21.5839214,22.4820925 C21.8557908,21.973741 21.9718273,21.4786786 21.9953671,20.3562013 L22,19.8722296 L22,8.1277704 L21.9953671,7.64379868 C21.9718273,6.52132145 21.8557908,6.02625898 21.5839214,5.51790745 C21.328507,5.04032407 20.9596759,4.67149299 20.4820925,4.41607861 C19.973741,4.14420923 19.4786786,4.02817271 18.3565519,4.00463281 L17.8727399,4 L14.8672035,4.0014712 C13.5776785,4.01654354 13.063671,4.12420106 12.5179075,4.41607861 C12.0403241,4.67149299 11.671493,5.04032407 11.4160786,5.51790745 C11.3162671,5.70453881 11.247014,5.86462583 11.1932083,6.04356381 L11.1439922,6.23046675 C11.0202509,6.76871069 10.4836058,7.10473147 9.94536188,6.98099016 C9.40711795,6.85724886 9.07109717,6.32060379 9.19483847,5.78235986 C9.29702192,5.33788726 9.43976256,4.97240481 9.65245221,4.57470973 C10.0942662,3.74858941 10.7485894,3.09426619 11.5747097,2.65245221 C12.381318,2.22107338 13.1541698,2.04279931 14.5642866,2.00686207 L14.8550057,2.00153963 L17.8722296,2 Z M11.1541722,11 L8.6271902,11.0011468 C7.72318372,11.0111835 7.36933641,11.0883745 7.0063303,11.2825123 C6.69170989,11.4507731 6.45077309,11.6917099 6.28251225,12.0063303 C6.07344079,12.39726 6,12.7775676 6,13.8458278 L6,13.8458278 L6,21.1541722 C6,22.2224324 6.07344079,22.60274 6.28251225,22.9936697 C6.45077309,23.3082901 6.69170989,23.5492269 7.0063303,23.7174877 C7.34141286,23.8966919 7.66869148,23.9762489 8.42808487,23.9953223 L8.42808487,23.9953223 L8.8458278,24 L11.1541722,24 C12.2224324,24 12.60274,23.9265592 12.9936697,23.7174877 C13.3082901,23.5492269 13.5492269,23.3082901 13.7174877,22.9936697 C13.8966919,22.6585871 13.9762489,22.3313085 13.9953223,21.5719151 L13.9953223,21.5719151 L14,21.1541722 L14,13.8458278 C14,12.7775676 13.9265592,12.39726 13.7174877,12.0063303 C13.5492269,11.6917099 13.3082901,11.4507731 12.9936697,11.2825123 C12.60274,11.0734408 12.2224324,11 11.1541722,11 L11.1541722,11 Z" id="↳-Icon-Color" fill="currentColor" fill-rule="nonzero"></path>
        </g>
    </g>
</svg>
